symbolic/16x16/places/folder-onedrive.svg

<svg xmlns="http://www.w3.org/2000/svg" width="16" height="16" version="1.1">
 <defs>
  <style id="current-color-scheme" type="text/css">
   .ColorScheme-Text { color:#323a41; } .ColorScheme-Highlight { color:#4285f4; } .ColorScheme-NeutralText { color:#ff9800; } .ColorScheme-PositiveText { color:#4caf50; } .ColorScheme-NegativeText { color:#f44336; }
  </style>
 </defs>
 <path style="fill:currentColor" class="ColorScheme-Text" d="M 9,3 A 3,3 0 0 0 6.0410156,5.5351562 2.5,2.5 0 0 0 4.5,5 2.5,2.5 0 0 0 2.0449219,7.0429688 2.5,2.5 0 0 0 0,9.5 2.5,2.5 0 0 0 2.5,12 2.5,2.5 0 0 0 3.1582031,11.908203 C 3.0645372,11.619448 3,11.318157 3,11 3,9.7367214 3.9017052,8.8490484 5.0175781,8.4101562 5.0685455,6.5321929 6.6105828,5 8.5,5 9.888328,5.0009908 10.905625,5.9465663 11.466797,7.1464844 11.585752,7.1238185 11.698168,7.078767 11.8125,7.0429688 A 3,3 0 0 0 12,6 3,3 0 0 0 9,3 Z M 8.5,6 C 7.1192881,6 6,7.1192881 6,8.5 6.0012426,8.6687345 6.0195652,8.8369097 6.0546875,9.0019531 6.0364681,9.0010527 6.0182372,9.0004016 6,9 4.8954305,9 4,9.8954305 4,11 c 0,1.104569 0.8954305,2 2,2 h 8.5 C 15.328427,13 16,12.328427 16,11.5 16,10.671573 15.328427,10 14.5,10 c -0.171876,8.57e-4 -0.342325,0.03125 -0.503906,0.08984 C 13.998069,10.059929 13.999372,10.029973 14,10 14,8.8954305 13.104569,8 12,8 11.64409,8.0007808 11.294836,8.0965223 10.988281,8.2773438 10.873057,6.9887428 9.793742,6.0009233 8.5,6 Z"/>
</svg>

<svg xmlns="http://www.w3.org/2000/svg" width="16" height="16"><defs><style id="current-color-scheme" type="text/css"></style></defs><path style="fill:currentColor;color:#323a41" d="M9 3a3 3 0 0 0-2.959 2.535A2.5 2.5 0 0 0 4.5 5a2.5 2.5 0 0 0-2.455 2.043A2.5 2.5 0 0 0 0 9.5 2.5 2.5 0 0 0 2.5 12a2.5 2.5 0 0 0 .658-.092A2.929 2.929 0 0 1 3 11c0-1.263.902-2.151 2.018-2.59C5.068 6.532 6.61 5 8.5 5c1.388.001 2.406.947 2.967 2.146.119-.022.231-.067.345-.103A3 3 0 0 0 12 6a3 3 0 0 0-3-3zm-.5 3A2.5 2.5 0 0 0 6 8.5a2.5 2.5 0 0 0 .055.502A2 2 0 1 0 6 13h8.5a1.5 1.5 0 0 0 0-3 1.5 1.5 0 0 0-.504.09 2 2 0 0 0-3.008-1.812A2.5 2.5 0 0 0 8.5 6z"/></svg>
